X:5
T:New Century, The
M:C|
L:1/8
S:Darcie's TrTuneSbk Vo.2 (1998) p. 32
R:hornpipe
Z: Wosika
K:G
(Bc)|: "G"dBGF GBdB| "F"cA=FE FAcA| "G"BAGF GB (3def| gbaf gage|
dedB G2AB| "F"c=fcA =F2Ac| "G"BGgd "D"ecdF| AGGF "G"G2::
(GA)| "G"Bcde "F"=fdcA| "G"dDEF GFGA| Bcde "F"=fdge| "D"afd^c d2 (3def|
"G"gdBG "D"ecAF| "G"GFGB "D"AG (3EFG| FDFA cedF| AGGF "G"G2:|
